X:411
T:Hoar Frost Rondo
M:C|
L:1/8
C:© Paul Gitlitz 2018
K:C
"C"[e2e2] [e2e2] (c/d/c/A/) GA|[e2e2] [e2e2] (c/d/c/A/) GA|[e2e2] [e2e2] (c/d/c/A/) GA|"G7"cAGE "C"C2Gc|!
"C"[e2e2] [e2e2] (c/d/c/A/) GA|[e2e2] [e2e2] (c/d/c/A/) GA|[e2e2] [e2e2] (c/d/c/A/) GA|"G7" (c/d/c/A/) GE "C"C2AG|!
"F"F2Ac ecAF|"Am"E2Ac ecAE|"F"F2Ac fcAF|"G7"(G/A/G/F/) ED "C"C2GE|!
"F"F2Ac ecAF|"Am"E2Ac ecAE|"F"F2Ac fcAF|"G7" (G/A/G/F/) ED "C"C2Gc|!
"C"[e2e2] [e2e2] (c/d/c/A/) GA|[e2e2] [e2e2] (c/d/c/A/) GA|[e2e2] [e2e2] (c/d/c/A/) GA|"G7"cAGE "C" C2Gc|!
"C"[e2e2] [e2e2] (c/d/c/A/) GA|[e2e2] [e2e2] (c/d/c/A/) GA|[e2e2] [e2e2] (c/d/c/A/) GA|"G7" (c/d/c/A/) GE "C"C3^G,|!
"Am"A,2C2 "C"EDCB,|"Am"A,2C2 "C"AGEC|"Am"A,2C2 "Cdim7"(_E=E)DC|"Ddim7"DCB,_B, "Am"A,3^G,|!
"Am"A,2C2 "C"EDCB,|"Am"A,2C2 "C"AGEC|"Am"A,2C2 "Cdim"(_E=E)DC|"G7"DCB,^G,"Am"A,4|!
"C"[e2e2] [e2e2] (c/d/c/A/) GA|[e2e2] [e2e2] (c/d/c/A/) GA|[e2e2] [e2e2] (c/d/c/A/) GA|"G7"cAGE "C"C2Gc|!
"C"[e2e2] [e2e2] (c/d/c/A/) GA|[e2e2] [e2e2] (c/d/c/A/) GA|[e2e2] [e2e2] (c/d/c/A/) GA|"G7" (c/d/c/A/) GE "C"C4|!
